X:18016
T:Unknown Reel # 2
S:irtrad-l, 5/98, P. Varlet
M:4/4
L:1/8
Q:240
N:as played by Micmac Indian, Lee Cremo
R:reel
K:G
D2 |: G2 {d}BA BGGB | dedB BGGB | dedB degd | egdB A2 {d}BA |
G2 {d}BA BGGB | dedB BGGB | dedB degd |1 egdB G2 {d}BA :|2 egdB G2 G2 ||
gage gdde | gage degd | eaab ageg | abag gede |
gage gdde | gage degd | eaab agea | gedB G2 G2 :||
